assets/post/images/constellation15.svg

<svg xmlns="http://www.w3.org/2000/svg" width="1195" height="1129" overflow="hidden"><defs><clipPath id="a"><path d="M1468 1263h1195v1129H1468z"/></clipPath></defs><g clip-path="url(#a)" transform="translate(-1468 -1263)"><path fill="none" stroke="#5d1709" stroke-miterlimit="8" stroke-width="9.167" d="M1749.5 1479.5h576.58m-576.58 203h576.58m-579.58 345h576.58"/><path fill="#5d1709" d="M1746.5 2224.92h535.33v9.16H1746.5Zm530.74-18.34 45.84 22.92-45.84 22.92Z"/><path fill="none" stroke="#5d1709" stroke-miterlimit="8" stroke-width="9.167" d="M1705.5 1523.5v115.12m663.63 86.88-2.632 344.761m-662.998.239v202.42"/><path fill="none" stroke="#000" stroke-miterlimit="8" stroke-width="9.167" d="M1468.5 1841.5h1189.38m-630.38 550.44V1288.5"/><path fill="#d74514" fill-rule="evenodd" d="M2134 1479.5c0-24.02 19.7-43.5 44-43.5s44 19.48 44 43.5-19.7 43.5-44 43.5-44-19.48-44-43.5"/><text fill="#d74514" font-family="Microsoft YaHei,Microsoft YaHei_MSFontService,sans-serif" font-size="55" font-weight="700" transform="translate(2104.89 1418)">0001</text><path fill-rule="evenodd" d="M2604.76 1900.31h14.26l-.39 1.75c-.9.19-1.55.4-1.94.64-.4.24-.75.59-1.05 1.07-.31.47-.63 1.22-.97 2.23-.33 1.01-.75 2.65-1.24 4.93l-6.1 27.66c-.31 1.41-.51 2.52-.61 3.34-.09.82-.14 1.56-.14 2.22 0 1.07.27 1.83.8 2.27.54.44 1.44.7 2.69.8l-.39 1.75h-14.26l.4-1.75c.9-.14 1.58-.37 2.03-.7.45-.32.83-.76 1.14-1.33s.59-1.27.85-2.09c.27-.82.66-2.4 1.18-4.76l6.06-27.44c.52-2.38.78-4.29.78-5.74 0-1.12-.27-1.9-.83-2.34-.56-.43-1.45-.69-2.66-.76Z"/><text x="2595.42" y="1942.88" fill-opacity="0" font-family="Arial,Arial_MSFontService,sans-serif" font-size="48.655">𝐼</text><path fill-rule="evenodd" d="M2100.04 1305.15c-2.57 0-4.96.91-7.19 2.74-2.22 1.83-4.17 4.45-5.84 7.85-1.68 3.39-2.98 7.12-3.91 11.19-.92 4.06-1.39 7.65-1.39 10.76 0 7.35 2.68 11.02 8.02 11.02q4.965 0 9.09-4.62c2.76-3.08 4.98-7.34 6.67-12.78s2.53-10.52 2.53-15.25c0-3.54-.65-6.25-1.96-8.11-1.31-1.87-3.32-2.8-6.02-2.8m.39-3.14c4.58 0 8.12 1.33 10.6 3.99 2.49 2.67 3.73 6.52 3.73 11.55 0 3.33-.53 7.05-1.57 11.16-1.05 4.11-2.48 7.74-4.31 10.89s-3.95 5.68-6.37 7.61q-3.615 2.88-7.86 3.99c.55 1.74 1.06 3.17 1.54 4.3.47 1.13.93 2.04 1.37 2.74s.87 1.23 1.3 1.57.86.58 1.28.69q.645.18 1.5.18c.9 0 1.82-.26 2.74-.78.93-.52 1.96-1.43 3.11-2.71l1.85 2q-2.85 3.09-5.31 4.38c-1.64.86-3.33 1.28-5.06 1.28q-2.97 0-4.83-1.32c-1.25-.87-2.33-2.28-3.25-4.2-.91-1.93-1.8-4.45-2.65-7.56-4.3-.24-7.58-1.66-9.84-4.28-2.26-2.61-3.39-6.29-3.39-11.05 0-3.56.6-7.59 1.8-12.08s2.94-8.45 5.21-11.89c2.27-3.43 4.98-6.03 8.12-7.8 3.15-1.77 6.58-2.66 10.29-2.66"/><text x="2075.01" y="1357" fill-opacity="0" font-family="Arial,Arial_MSFontService,sans-serif" font-size="62.841">𝑄</text><path fill="#d74514" fill-rule="evenodd" d="M1662 1479.5c0-24.02 19.48-43.5 43.5-43.5s43.5 19.48 43.5 43.5-19.48 43.5-43.5 43.5-43.5-19.48-43.5-43.5"/><text fill="#d74514" font-family="Microsoft YaHei,Microsoft YaHei_MSFontService,sans-serif" font-size="55" font-weight="700" transform="translate(1632.08 1418)">0010</text><path fill="#d74514" fill-rule="evenodd" d="M2325 1479.5c0-24.02 19.7-43.5 44-43.5s44 19.48 44 43.5-19.7 43.5-44 43.5-44-19.48-44-43.5"/><text fill="#d74514" font-family="Microsoft YaHei,Microsoft YaHei_MSFontService,sans-serif" font-size="55" font-weight="700" transform="translate(2295.95 1418)">0000</text><path fill="#d74514" fill-rule="evenodd" d="M1853 1479.5c0-24.02 19.48-43.5 43.5-43.5s43.5 19.48 43.5 43.5-19.48 43.5-43.5 43.5-43.5-19.48-43.5-43.5"/><text fill="#d74514" font-family="Microsoft YaHei,Microsoft YaHei_MSFontService,sans-serif" font-size="55" font-weight="700" transform="translate(1823.14 1418)">0011</text><path fill="#d74514" fill-rule="evenodd" d="M2134 1681.5c0-24.02 19.7-43.5 44-43.5s44 19.48 44 43.5-19.7 43.5-44 43.5-44-19.48-44-43.5"/><text fill="#d74514" font-family="Microsoft YaHei,Microsoft YaHei_MSFontService,sans-serif" font-size="55" font-weight="700" transform="translate(2104.89 1618)">0101</text><path fill="#d74514" fill-rule="evenodd" d="M1662 1681.5c0-24.02 19.48-43.5 43.5-43.5s43.5 19.48 43.5 43.5-19.48 43.5-43.5 43.5-43.5-19.48-43.5-43.5"/><text fill="#d74514" font-family="Microsoft YaHei,Microsoft YaHei_MSFontService,sans-serif" font-size="55" font-weight="700" transform="translate(1632.08 1618)">0110</text><path fill="#d74514" fill-rule="evenodd" d="M2325 1681.5c0-24.02 19.7-43.5 44-43.5s44 19.48 44 43.5-19.7 43.5-44 43.5-44-19.48-44-43.5"/><text fill="#d74514" font-family="Microsoft YaHei,Microsoft YaHei_MSFontService,sans-serif" font-size="55" font-weight="700" transform="translate(2295.95 1618)">0100</text><path fill="#d74514" fill-rule="evenodd" d="M1853 1681.5c0-24.02 19.48-43.5 43.5-43.5s43.5 19.48 43.5 43.5-19.48 43.5-43.5 43.5-43.5-19.48-43.5-43.5"/><text fill="#d74514" font-family="Microsoft YaHei,Microsoft YaHei_MSFontService,sans-serif" font-size="55" font-weight="700" transform="translate(1823.14 1618)">0111</text><path fill="#d74514" fill-rule="evenodd" d="M2132 2026.5c0-24.02 19.48-43.5 43.5-43.5s43.5 19.48 43.5 43.5-19.48 43.5-43.5 43.5-43.5-19.48-43.5-43.5"/><text fill="#d74514" font-family="Microsoft YaHei,Microsoft YaHei_MSFontService,sans-serif" font-size="55" font-weight="700" transform="translate(2102.26 1965)">110<tspan x="101.406" y="0">1</tspan></text><path fill="#d74514" fill-rule="evenodd" d="M1659 2026.5c0-24.02 19.48-43.5 43.5-43.5s43.5 19.48 43.5 43.5-19.48 43.5-43.5 43.5-43.5-19.48-43.5-43.5"/><text fill="#d74514" font-family="Microsoft YaHei,Microsoft YaHei_MSFontService,sans-serif" font-size="55" font-weight="700" transform="translate(1629.44 1965)">1110</text><path fill="#d74514" fill-rule="evenodd" d="M2323 2026.5c0-24.02 19.48-43.5 43.5-43.5s43.5 19.48 43.5 43.5-19.48 43.5-43.5 43.5-43.5-19.48-43.5-43.5"/><text fill="#d74514" font-family="Microsoft YaHei,Microsoft YaHei_MSFontService,sans-serif" font-size="55" font-weight="700" transform="translate(2293.32 1965)">1100</text><path fill="#d74514" fill-rule="evenodd" d="M1850 2026.5c0-24.02 19.48-43.5 43.5-43.5s43.5 19.48 43.5 43.5-19.48 43.5-43.5 43.5-43.5-19.48-43.5-43.5"/><text fill="#d74514" font-family="Microsoft YaHei,Microsoft YaHei_MSFontService,sans-serif" font-size="55" font-weight="700" transform="translate(1820.51 1965)">111<tspan x="101.406" y="0">1</tspan></text><path fill="#d74514" fill-rule="evenodd" d="M2132 2229c0-24.3 19.48-44 43.5-44s43.5 19.7 43.5 44-19.48 44-43.5 44-43.5-19.7-43.5-44"/><text fill="#d74514" font-family="Microsoft YaHei,Microsoft YaHei_MSFontService,sans-serif" font-size="55" font-weight="700" transform="translate(2102.26 2165)">1001</text><path fill="#d74514" fill-rule="evenodd" d="M1659 2229c0-24.3 19.48-44 43.5-44s43.5 19.7 43.5 44-19.48 44-43.5 44-43.5-19.7-43.5-44"/><text fill="#d74514" font-family="Microsoft YaHei,Microsoft YaHei_MSFontService,sans-serif" font-size="55" font-weight="700" transform="translate(1629.44 2165)">1010</text><path fill="#d74514" fill-rule="evenodd" d="M2323 2229c0-24.3 19.48-44 43.5-44s43.5 19.7 43.5 44-19.48 44-43.5 44-43.5-19.7-43.5-44"/><text fill="#d74514" font-family="Microsoft YaHei,Microsoft YaHei_MSFontService,sans-serif" font-size="55" font-weight="700" transform="translate(2293.32 2165)">1000</text><path fill="#d74514" fill-rule="evenodd" d="M1850 2229c0-24.3 19.48-44 43.5-44s43.5 19.7 43.5 44-19.48 44-43.5 44-43.5-19.7-43.5-44"/><text fill="#d74514" font-family="Microsoft YaHei,Microsoft YaHei_MSFontService,sans-serif" font-size="55" font-weight="700" transform="translate(1820.51 2165)">1011</text></g></svg>

<svg width="1195" height="1129" xmlns="http://www.w3.org/2000/svg" xmlns:xlink="http://www.w3.org/1999/xlink" overflow="hidden"><defs><clipPath id="clip0"><rect x="1468" y="1263" width="1195" height="1129"/></clipPath></defs><g clip-path="url(#clip0)" transform="translate(-1468 -1263)"><path d="M1749.5 1479.5 2326.08 1479.5" stroke="#5D1709" stroke-width="9.16667" stroke-miterlimit="8" fill="none" fill-rule="evenodd"/><path d="M1749.5 1682.5 2326.08 1682.5" stroke="#5D1709" stroke-width="9.16667" stroke-miterlimit="8" fill="none" fill-rule="evenodd"/><path d="M1746.5 2027.5 2323.08 2027.5" stroke="#5D1709" stroke-width="9.16667" stroke-miterlimit="8" fill="none" fill-rule="evenodd"/><path d="M1746.5 2224.92 2281.83 2224.92 2281.83 2234.08 1746.5 2234.08ZM2277.24 2206.58 2323.08 2229.5 2277.24 2252.42Z" fill="#5D1709"/><path d="M1705.5 1523.5 1705.5 1638.62" stroke="#5D1709" stroke-width="9.16667" stroke-miterlimit="8" fill="none" fill-rule="evenodd"/><path d="M0 0 2.63235 344.761" stroke="#5D1709" stroke-width="9.16667" stroke-miterlimit="8" fill="none" fill-rule="evenodd" transform="matrix(-1 0 0 1 2369.13 1725.5)"/><path d="M1703.5 2070.5 1703.5 2272.92" stroke="#5D1709" stroke-width="9.16667" stroke-miterlimit="8" fill="none" fill-rule="evenodd"/><path d="M1468.5 1841.5 2657.88 1841.5" stroke="#000000" stroke-width="9.16667" stroke-miterlimit="8" fill="none" fill-rule="evenodd"/><path d="M0 0 0.000360892 1103.44" stroke="#000000" stroke-width="9.16667" stroke-miterlimit="8" fill="none" fill-rule="evenodd" transform="matrix(1 0 0 -1 2027.5 2391.94)"/><path d="M2134 1479.5C2134 1455.48 2153.7 1436 2178 1436 2202.3 1436 2222 1455.48 2222 1479.5 2222 1503.52 2202.3 1523 2178 1523 2153.7 1523 2134 1503.52 2134 1479.5Z" fill="#D74514" fill-rule="evenodd"/><text fill="#D74514" font-family="Microsoft YaHei,Microsoft YaHei_MSFontService,sans-serif" font-weight="700" font-size="55" transform="matrix(1 0 0 1 2104.89 1418)">0001</text><path d="M2604.76 1900.31 2619.02 1900.31 2618.63 1902.06C2617.73 1902.25 2617.08 1902.46 2616.69 1902.7 2616.29 1902.94 2615.94 1903.29 2615.64 1903.77 2615.33 1904.24 2615.01 1904.99 2614.67 1906 2614.34 1907.01 2613.92 1908.65 2613.43 1910.93L2607.33 1938.59C2607.02 1940 2606.82 1941.11 2606.72 1941.93 2606.63 1942.75 2606.58 1943.49 2606.58 1944.15 2606.58 1945.22 2606.85 1945.98 2607.38 1946.42 2607.92 1946.86 2608.82 1947.12 2610.07 1947.22L2609.68 1948.97 2595.42 1948.97 2595.82 1947.22C2596.72 1947.08 2597.4 1946.85 2597.85 1946.52 2598.3 1946.2 2598.68 1945.76 2598.99 1945.19 2599.3 1944.62 2599.58 1943.92 2599.84 1943.1 2600.11 1942.28 2600.5 1940.7 2601.02 1938.34L2607.08 1910.9C2607.6 1908.52 2607.86 1906.61 2607.86 1905.16 2607.86 1904.04 2607.59 1903.26 2607.03 1902.82 2606.47 1902.39 2605.58 1902.13 2604.37 1902.06Z" fill-rule="evenodd"/><text fill="#000000" fill-opacity="0" font-family="Arial,Arial_MSFontService,sans-serif" font-size="48.6548" x="2595.42" y="1942.88">𝐼</text><path d="M2100.04 1305.15C2097.47 1305.15 2095.08 1306.06 2092.85 1307.89 2090.63 1309.72 2088.68 1312.34 2087.01 1315.74 2085.33 1319.13 2084.03 1322.86 2083.1 1326.93 2082.18 1330.99 2081.71 1334.58 2081.71 1337.69 2081.71 1345.04 2084.39 1348.71 2089.73 1348.71 2093.04 1348.71 2096.07 1347.17 2098.82 1344.09 2101.58 1341.01 2103.8 1336.75 2105.49 1331.31 2107.18 1325.87 2108.02 1320.79 2108.02 1316.06 2108.02 1312.52 2107.37 1309.81 2106.06 1307.95 2104.75 1306.08 2102.74 1305.15 2100.04 1305.15ZM2100.43 1302.01C2105.01 1302.01 2108.55 1303.34 2111.03 1306 2113.52 1308.67 2114.76 1312.52 2114.76 1317.55 2114.76 1320.88 2114.23 1324.6 2113.19 1328.71 2112.14 1332.82 2110.71 1336.45 2108.88 1339.6 2107.05 1342.75 2104.93 1345.28 2102.51 1347.21 2100.1 1349.13 2097.48 1350.46 2094.65 1351.2 2095.2 1352.94 2095.71 1354.37 2096.19 1355.5 2096.66 1356.63 2097.12 1357.54 2097.56 1358.24 2098 1358.94 2098.43 1359.47 2098.86 1359.81 2099.29 1360.15 2099.72 1360.39 2100.14 1360.5 2100.57 1360.62 2101.07 1360.68 2101.64 1360.68 2102.54 1360.68 2103.46 1360.42 2104.38 1359.9 2105.31 1359.38 2106.34 1358.47 2107.49 1357.19L2109.34 1359.19C2107.44 1361.25 2105.67 1362.71 2104.03 1363.57 2102.39 1364.43 2100.7 1364.85 2098.97 1364.85 2096.99 1364.85 2095.38 1364.41 2094.14 1363.53 2092.89 1362.66 2091.81 1361.25 2090.89 1359.33 2089.98 1357.4 2089.09 1354.88 2088.24 1351.77 2083.94 1351.53 2080.66 1350.11 2078.4 1347.49 2076.14 1344.88 2075.01 1341.2 2075.01 1336.44 2075.01 1332.88 2075.61 1328.85 2076.81 1324.36 2078.01 1319.87 2079.75 1315.91 2082.02 1312.47 2084.29 1309.04 2087 1306.44 2090.14 1304.67 2093.29 1302.9 2096.72 1302.01 2100.43 1302.01Z" fill-rule="evenodd"/><text fill="#000000" fill-opacity="0" font-family="Arial,Arial_MSFontService,sans-serif" font-size="62.8413" x="2075.01" y="1357">𝑄</text><path d="M1662 1479.5C1662 1455.48 1681.48 1436 1705.5 1436 1729.52 1436 1749 1455.48 1749 1479.5 1749 1503.52 1729.52 1523 1705.5 1523 1681.48 1523 1662 1503.52 1662 1479.5Z" fill="#D74514" fill-rule="evenodd"/><text fill="#D74514" font-family="Microsoft YaHei,Microsoft YaHei_MSFontService,sans-serif" font-weight="700" font-size="55" transform="matrix(1 0 0 1 1632.08 1418)">0010</text><path d="M2325 1479.5C2325 1455.48 2344.7 1436 2369 1436 2393.3 1436 2413 1455.48 2413 1479.5 2413 1503.52 2393.3 1523 2369 1523 2344.7 1523 2325 1503.52 2325 1479.5Z" fill="#D74514" fill-rule="evenodd"/><text fill="#D74514" font-family="Microsoft YaHei,Microsoft YaHei_MSFontService,sans-serif" font-weight="700" font-size="55" transform="matrix(1 0 0 1 2295.95 1418)">0000</text><path d="M1853 1479.5C1853 1455.48 1872.48 1436 1896.5 1436 1920.52 1436 1940 1455.48 1940 1479.5 1940 1503.52 1920.52 1523 1896.5 1523 1872.48 1523 1853 1503.52 1853 1479.5Z" fill="#D74514" fill-rule="evenodd"/><text fill="#D74514" font-family="Microsoft YaHei,Microsoft YaHei_MSFontService,sans-serif" font-weight="700" font-size="55" transform="matrix(1 0 0 1 1823.14 1418)">0011</text><path d="M2134 1681.5C2134 1657.48 2153.7 1638 2178 1638 2202.3 1638 2222 1657.48 2222 1681.5 2222 1705.52 2202.3 1725 2178 1725 2153.7 1725 2134 1705.52 2134 1681.5Z" fill="#D74514" fill-rule="evenodd"/><text fill="#D74514" font-family="Microsoft YaHei,Microsoft YaHei_MSFontService,sans-serif" font-weight="700" font-size="55" transform="matrix(1 0 0 1 2104.89 1618)">0101</text><path d="M1662 1681.5C1662 1657.48 1681.48 1638 1705.5 1638 1729.52 1638 1749 1657.48 1749 1681.5 1749 1705.52 1729.52 1725 1705.5 1725 1681.48 1725 1662 1705.52 1662 1681.5Z" fill="#D74514" fill-rule="evenodd"/><text fill="#D74514" font-family="Microsoft YaHei,Microsoft YaHei_MSFontService,sans-serif" font-weight="700" font-size="55" transform="matrix(1 0 0 1 1632.08 1618)">0110</text><path d="M2325 1681.5C2325 1657.48 2344.7 1638 2369 1638 2393.3 1638 2413 1657.48 2413 1681.5 2413 1705.52 2393.3 1725 2369 1725 2344.7 1725 2325 1705.52 2325 1681.5Z" fill="#D74514" fill-rule="evenodd"/><text fill="#D74514" font-family="Microsoft YaHei,Microsoft YaHei_MSFontService,sans-serif" font-weight="700" font-size="55" transform="matrix(1 0 0 1 2295.95 1618)">0100</text><path d="M1853 1681.5C1853 1657.48 1872.48 1638 1896.5 1638 1920.52 1638 1940 1657.48 1940 1681.5 1940 1705.52 1920.52 1725 1896.5 1725 1872.48 1725 1853 1705.52 1853 1681.5Z" fill="#D74514" fill-rule="evenodd"/><text fill="#D74514" font-family="Microsoft YaHei,Microsoft YaHei_MSFontService,sans-serif" font-weight="700" font-size="55" transform="matrix(1 0 0 1 1823.14 1618)">0111</text><path d="M2132 2026.5C2132 2002.48 2151.48 1983 2175.5 1983 2199.52 1983 2219 2002.48 2219 2026.5 2219 2050.52 2199.52 2070 2175.5 2070 2151.48 2070 2132 2050.52 2132 2026.5Z" fill="#D74514" fill-rule="evenodd"/><text fill="#D74514" font-family="Microsoft YaHei,Microsoft YaHei_MSFontService,sans-serif" font-weight="700" font-size="55" transform="matrix(1 0 0 1 2102.26 1965)">110<tspan font-size="55" x="101.406" y="0">1</tspan></text><path d="M1659 2026.5C1659 2002.48 1678.48 1983 1702.5 1983 1726.52 1983 1746 2002.48 1746 2026.5 1746 2050.52 1726.52 2070 1702.5 2070 1678.48 2070 1659 2050.52 1659 2026.5Z" fill="#D74514" fill-rule="evenodd"/><text fill="#D74514" font-family="Microsoft YaHei,Microsoft YaHei_MSFontService,sans-serif" font-weight="700" font-size="55" transform="matrix(1 0 0 1 1629.44 1965)">1110</text><path d="M2323 2026.5C2323 2002.48 2342.48 1983 2366.5 1983 2390.52 1983 2410 2002.48 2410 2026.5 2410 2050.52 2390.52 2070 2366.5 2070 2342.48 2070 2323 2050.52 2323 2026.5Z" fill="#D74514" fill-rule="evenodd"/><text fill="#D74514" font-family="Microsoft YaHei,Microsoft YaHei_MSFontService,sans-serif" font-weight="700" font-size="55" transform="matrix(1 0 0 1 2293.32 1965)">1100</text><path d="M1850 2026.5C1850 2002.48 1869.48 1983 1893.5 1983 1917.52 1983 1937 2002.48 1937 2026.5 1937 2050.52 1917.52 2070 1893.5 2070 1869.48 2070 1850 2050.52 1850 2026.5Z" fill="#D74514" fill-rule="evenodd"/><text fill="#D74514" font-family="Microsoft YaHei,Microsoft YaHei_MSFontService,sans-serif" font-weight="700" font-size="55" transform="matrix(1 0 0 1 1820.51 1965)">111<tspan font-size="55" x="101.406" y="0">1</tspan></text><path d="M2132 2229C2132 2204.7 2151.48 2185 2175.5 2185 2199.52 2185 2219 2204.7 2219 2229 2219 2253.3 2199.52 2273 2175.5 2273 2151.48 2273 2132 2253.3 2132 2229Z" fill="#D74514" fill-rule="evenodd"/><text fill="#D74514" font-family="Microsoft YaHei,Microsoft YaHei_MSFontService,sans-serif" font-weight="700" font-size="55" transform="matrix(1 0 0 1 2102.26 2165)">1001</text><path d="M1659 2229C1659 2204.7 1678.48 2185 1702.5 2185 1726.52 2185 1746 2204.7 1746 2229 1746 2253.3 1726.52 2273 1702.5 2273 1678.48 2273 1659 2253.3 1659 2229Z" fill="#D74514" fill-rule="evenodd"/><text fill="#D74514" font-family="Microsoft YaHei,Microsoft YaHei_MSFontService,sans-serif" font-weight="700" font-size="55" transform="matrix(1 0 0 1 1629.44 2165)">1010</text><path d="M2323 2229C2323 2204.7 2342.48 2185 2366.5 2185 2390.52 2185 2410 2204.7 2410 2229 2410 2253.3 2390.52 2273 2366.5 2273 2342.48 2273 2323 2253.3 2323 2229Z" fill="#D74514" fill-rule="evenodd"/><text fill="#D74514" font-family="Microsoft YaHei,Microsoft YaHei_MSFontService,sans-serif" font-weight="700" font-size="55" transform="matrix(1 0 0 1 2293.32 2165)">1000</text><path d="M1850 2229C1850 2204.7 1869.48 2185 1893.5 2185 1917.52 2185 1937 2204.7 1937 2229 1937 2253.3 1917.52 2273 1893.5 2273 1869.48 2273 1850 2253.3 1850 2229Z" fill="#D74514" fill-rule="evenodd"/><text fill="#D74514" font-family="Microsoft YaHei,Microsoft YaHei_MSFontService,sans-serif" font-weight="700" font-size="55" transform="matrix(1 0 0 1 1820.51 2165)">1011</text></g></svg>
